!!!!SEGMENT: pl-gd--ee-1638--006-006_marenzio-luca--il-quinto-libro-de-madrigalia-a-cinque-voci-ben-credo-ch-ancor-tu.krn
!!!cenid: 15xx:888
!!!COM: Marenzio, Luca
!!!COM-rismID: pe30003955
!!!CDT: ~1553-1599/08/22
!!!CNT: Italian
!!!GTL: Il Quinto libro de madrigalia a cinque voci
!!!OTL: Ben credo ch'ancor tu
!!!OMV: 006
!!!PDT: 1585
!!!AGN:
!!!SMS-siglum: PL-GD
!!!SMS-shelfmark: Ee 1638
!!!SMS-shelfwork: 006-006 G
!!!SMS-variant:
!!!SMS-altvar:
!!!NIFC-rismSourceID: 990039296
!!!NIFC-islandoraID: pl-gd:57883
!!!URL-pdf-islandora: https://repozytorium.nifc.pl/islandora/object/pl-gd%3A57883/datastream/PDF/view
!!!URL-scan: https://polish.musicsources.pl/pl/lokalizacje/galeria/klocki-introligatorskie/655 @EN{Scan on Polish Music Sources Website} @PL{Skany w portalu Dziedzictwo Muzyki Polskiej w otwartym dostępie}
!!!ONB-nifc:
!!!AIN: 1 alto 1 bass 1 soprn 1 tenor 1 vox
!!!key: G
**kern	**text	**kern	**text	**kern	**text	**kern	**text	**kern	**text
*part5	*part5	*part4	*part4	*part3	*part3	*part2	*part2	*part1	*part1
*staff5	*staff5	*staff4	*staff4	*staff3	*staff3	*staff2	*staff2	*staff1	*staff1
*I"BASSO	*	*I"TENORE	*	*I"ALTO	*	*I"CANTO	*	*I"QVINTO	*
*I'B	*	*I'T	*	*I'A	*	*I'S	*	*I'V	*
*ICvox	*	*ICvox	*	*ICvox	*	*ICvox	*	*ICvox	*
*Ibass	*	*Itenor	*	*Ialto	*	*Isoprn	*	*Ivox	*
*clefC4	*	*clefC3	*	*clefC2	*	*clefG2	*	*clefC3	*
*k[]	*	*k[]	*	*k[]	*	*k[]	*	*k[]	*
*G:	*	*G:	*	*G:	*	*G:	*	*G:	*
*M2/1	*	*M2/1	*	*M2/1	*	*M2/1	*	*M2/1	*
*met(C)	*	*met(C)	*	*met(C)	*	*met(C)	*	*met(C)	*
=1-	=1-	=1-	=1-	=1-	=1-	=1-	=1-	=1-	=1-
!	!	!	!	!	!	!LO:TX:a:t=Seſta et ultima parte.	!	!	!
!LO:TX:a:t=Seſta et ultima parte.	!	!LO:TX:a:t=Seſta et ultima parte.	!	!LO:TX:a:t=Seſta et ultima parte.	!	!	!	!LO:TX:a:t=Seſta et ultima parte.	!
0r	.	00r	.	00r	.	0r	.	1e	BEn
.	.	.	.	.	.	.	.	1f	cre-
=2-	=2-	=2-	=2-	=2-	=2-	=2-	=2-	=2-	=2-
1A	BEn	.	.	.	.	0r	.	4e\	-do
.	.	.	.	.	.	.	.	4c/	ch`an-
.	.	.	.	.	.	.	.	2e\	-cor
1B-X	cre-	.	.	.	.	.	.	2d\	tu
.	.	.	.	.	.	.	.	4r	.
.	.	.	.	.	.	.	.	4d\	So-
=3-	=3-	=3-	=3-	=3-	=3-	=3-	=3-	=3-	=3-
4A/	-do	0r	.	1a	BEn	0r	.	4c/	-ſpi-
4F/	ch`an-	.	.	.	.	.	.	4A/	-ri o
2A/	-cor	.	.	.	.	.	.	8c\	ſo-
.	.	.	.	.	.	.	.	8d\	.
.	.	.	.	.	.	.	.	8e\	.
.	.	.	.	.	.	.	.	8f\	.
2G/	tu	.	.	1b-X	cre-	.	.	2g\	.
4r	.	.	.	.	.	.	.	4g\	-le
!	!	!	!	!	!	!	!	!LO:SIC:v:t=custos f	!
4G/	ſo-	.	.	.	.	.	.	4d\	ſo-
!	!	!	!	!	!	!	!	!LO:LB:g=original	!
=4-	=4-	=4-	=4-	=4-	=4-	=4-	=4-	=4-	=4-
4F/	-ſpi-	1r	.	4a\	-do	0r	.	2f\	-ſpi-
4D/	-ri o	.	.	4f\	ch`an-	.	.	.	.
8F/	ſo-	.	.	2a\	-cor	.	.	2c/	-ri
8G/	.	.	.	.	.	.	.	.	.
8A/	.	.	.	.	.	.	.	.	.
8Bny\	.	.	.	.	.	.	.	.	.
1c	.	1e	BEn	2g\	tu	.	.	4r	.
.	.	.	.	.	.	.	.	4e\	ſo-
.	.	.	.	4r	.	.	.	4g\	-ſpi-
.	.	.	.	4g\	So-	.	.	4e\	-ri o
=5-	=5-	=5-	=5-	=5-	=5-	=5-	=5-	=5-	=5-
4d\	-le	1f	cre-	4f\	-ſpi-	1r	.	8a\	ſo-
.	.	.	.	.	.	.	.	8g\	.
!LO:SIC:v:t=custos D	!	!	!	!	!	!	!	!	!
4D/	o	.	.	4d/	-ri o	.	.	8f\	.
.	.	.	.	.	.	.	.	8e\	.
!LO:LB:g=original	!	!	!	!	!	!	!	!	!
8D/	ſo-	.	.	8f\	ſo-	.	.	2d\	.
8E/	.	.	.	8g\	.	.	.	.	.
8F/	.	.	.	8a\	.	.	.	.	.
8G/	.	.	.	8bny\	.	.	.	.	.
2A/	.	4e\	-do	1cc	.	1ee	BEn	1c	-le
.	.	4c/	ch`an-	.	.	.	.	.	.
2A/	-le	2e\	-cor	.	.	.	.	.	.
=6-	=6-	=6-	=6-	=6-	=6-	=6-	=6-	=6-	=6-
0r	.	2d\	tu	2a\	le	1ff	cre-	4r	.
.	.	.	.	.	.	.	.	4f\	ch`an-
.	.	4r	.	4r	.	.	.	2a\	-cor
!	!	!	!	!LO:SIC:v:t=custos a	!	!	!	!	!
.	.	4d\	So-	4f\	ch`an-	.	.	.	.
!	!	!	!	!LO:LB:g=original	!	!	!	!	!
.	.	4c/	-ſpi-	2a\	-cor	4ee\	-do	4e\	tu
.	.	4A/	-ri o	.	.	4cc\	ch`an-	4f\	So-
.	.	8c/	ſo-	4g\	tu	2ee\	-cor	4e\	-ſpi-
.	.	8d\	.	.	.	.	.	.	.
.	.	8e\	.	4cc\	So-	.	.	4c/	-ri o
.	.	8f\	.	.	.	.	.	.	.
=7-	=7-	=7-	=7-	=7-	=7-	=7-	=7-	=7-	=7-
2r	.	2g\	.	4b\	-ſpi-	2dd\	tu	1G	ſo-
.	.	.	.	4g\	-ri o	.	.	.	.
4r	.	4g\	-le	2b\	ſo-	4r	.	.	.
!	!	!LO:SIC:v:t=custos e	!	!	!	!	!	!	!
4G/	So-	4g\	ſo-	.	.	4dd\	So-	.	.
!	!	!LO:LB:g=original	!	!	!	!	!	!	!
4A/	-ſpi-	4e\	-ſpi-	2a\	-le	4cc\	-ſpi-	1c	-le
4F/	-ri o	4f\	-ri o	.	.	4a/	-ri o	.	.
2A/	ſo-	4.e\	ſo-	2a\	Pen-	8cc\	ſo-	.	.
.	.	.	.	.	.	8dd\	.	.	.
.	.	.	.	.	.	8ee\	.	.	.
!	!	!	!	!	!	!LO:SIC:v:t=custos gg	!	!	!
.	.	16d\	.	.	.	8ff\	.	.	.
.	.	16c\	.	.	.	.	.	.	.
!	!	!	!	!	!	!LO:LB:g=original	!	!	!
=8-	=8-	=8-	=8-	=8-	=8-	=8-	=8-	=8-	=8-
2G/	-le	1d	.	1b	-ſan-	2gg\	.	2r	.
2G/	Pen-	.	.	.	.	2dd\	-le	2g\	Pen-
0F	-ſan-	2f\	-le	1cc	-do	2r	.	0a	-ſan-
.	.	2c/	Pen-	.	.	2cc\	Pen-	.	.
=9-	=9-	=9-	=9-	=9-	=9-	=9-	=9-	=9-	=9-
.	-do	1A	-ſan-	1r	.	1dd	-ſan-	.	.
!	!	!	!	!	!	!	!	!LO:SIC:v:t=custos e	!
2E/	a la	2B/	-do a	4r	.	4ee\	-do	4g\	-do a
!	!	!	!	!	!	!	!	!LO:LB:g=original	!
.	.	.	.	4g#X\	Pen-	2ee\	a la	2e\	la
4A/	di-	4c#X\	la	2a\	-ſan-	.	.	.	.
!	!	!	!	!	!	!	!	!LO:TX:t=P:problem:dwie sylaby na jedną nutę	!
4D/	-ui-	4d\	di-	.	.	4ff\	di-	4d\	diui-
=10-	=10-	=10-	=10-	=10-	=10-	=10-	=10-	=10-	=10-
!	!	!LO:TX:t=P:problem:dwie sylaby na jedną nutę	!	!	!	!	!	!	!
4.A/	-na	4e\	-uina	2a\	-do	4ee\	-uina	4.c#X/	-na
.	.	4a\	ig-	.	.	4ee\	ig-	.	.
!LO:N:acc=#	!	!	!	!	!	!	!	!	!
8Bn\	ig-	.	.	.	.	.	.	8d\	ig-
4c\	-nu-	4a\	-nu-	2r	.	4ee\	-nu-	4e\	-nu-
!LO:SIC:v:t=custos A	!	!	!	!	!	!	!	!	!
4d\	-da	4f\	-da	.	.	4dd\	-da	4a\	-da
!LO:LB:g=original	!	!	!	!	!	!	!	!	!
2A/	ma-	2e\	ma-	2r	.	2cc#X\	ma-	2a\	ma-
2D/	-no	2d\	-no	4r	.	2dd\	-no	2a\	-no
.	.	.	.	2a\	Che	.	.	.	.
=11-	=11-	=11-	=11-	=11-	=11-	=11-	=11-	=11-	=11-
!	!	!	!	!	!	!LO:SIC:v:t=custos ee	!	!	!
2.d\	Che	2.f\	Che	.	.	1r	.	1r	.
.	.	.	.	4a\	ſe-	.	.	.	.
.	.	.	.	2a\	-ben	.	.	.	.
4d\	ſe-	4f\	ſe-	.	.	.	.	.	.
!	!	!LO:SIC:v:t=custos c	!	!	!	!LO:LB:g=original	!	!	!
2d\	-ben	2f\	-ben	4r	.	2r	.	4r	.
.	.	.	.	8a\	ti	.	.	8f\	ti
!	!	!	!	!LO:SIC:v:t=custos cc	!	!	!	!	!
.	.	.	.	8b\	ri-	.	.	8g\	ri-
!	!	!LO:LB:g=original	!	!LO:LB:g=original	!	!	!	!	!
4r	.	4r	.	2cc\	-mem-	2.ee\	Che	2a\	-mem-
8A\	ti-	8cny/	ti	.	.	.	.	.	.
8B\	-ri-	8d\	ri-	.	.	.	.	.	.
=12-	=12-	=12-	=12-	=12-	=12-	=12-	=12-	=12-	=12-
2c\	-mem-	1e	-mem-	2cc\	-bra	.	.	2g\	-bra
.	.	.	.	.	.	4ee\	ſe-	.	.
2c\	-bra	.	.	4r	.	2ee\	-ben	4r	.
.	.	.	.	8gny\	ti	.	.	8e\	ti
.	.	.	.	8a\	ri-	.	.	8f\	ri-
2.G/	Che	2d\	-bra	1.bny	-mem-	4r	.	2g\	-mem-
.	.	.	.	.	.	8b/	ti	.	.
.	.	.	.	.	.	8ccny\	ri-	.	.
.	.	2.d\	Che	.	.	2dd\	-mem-	1g\	-bra
4G/	ſe-	.	.	.	.	.	.	.	.
=13-	=13-	=13-	=13-	=13-	=13-	=13-	=13-	=13-	=13-
2G/	-ben	.	.	.	.	1dd	-bra	.	.
.	.	4d\	ſe-	.	.	.	.	.	.
4r	.	2d\	-ben	2a\	-ra	.	.	1f	du
8D/	ti	.	.	.	.	.	.	.	.
8E/	ri-	.	.	.	.	.	.	.	.
2F/	-mem-	4r	.	1.a	di	4r	.	.	.
.	.	8f\	ti	.	.	8a/	ti	.	.
.	.	8g\	ri-	.	.	8b/	ri-	.	.
!	!	!	!	!	!	!	!	!LO:SIC:v:t=custos c	!
2F/	-bra	2a\	-mem-	.	.	2cc\	-mem-	2cny/	quel
!	!	!	!	!	!	!	!	!LO:LB:g=original	!
=14-	=14-	=14-	=14-	=14-	=14-	=14-	=14-	=14-	=14-
2A/	di	1e	-bra	.	.	4cc\	-bra	0.c	tem-
.	.	.	.	.	.	2cc\	di	.	.
2E/	quel	.	.	2g\	quel	.	.	.	.
.	.	.	.	.	.	4b/	quel	.	.
0F	tem-	4r	.	0f	tem-	0a	tem-	.	.
.	.	2A/	di	.	.	.	.	.	.
.	.	4G/	quel	.	.	.	.	.	.
=15-	=15-	=15-	=15-	=15-	=15-	=15-	=15-	=15-	=15-
.	.	1F	tem-	.	.	.	.	.	.
!LO:SIC:v:t=custos C	!	!	!	!	!	!	!	!	!
2C/	-po	4G/	-po	1e	-po	1g	-po	2c/	-po
.	.	4c/	Ti	.	.	.	.	.	.
!LO:LB:g=original	!	!	!	!	!	!	!	!	!
4r	.	2.c/	rin-	.	.	.	.	2r	.
4c\	Ti	.	.	.	.	.	.	.	.
=16-	=16-	=16-	=16-	=16-	=16-	=16-	=16-	=16-	=16-
4A/	rin-	.	.	1r	.	1r	.	0r	.
!	!	!LO:SIC:v:t=custos e	!	!	!	!	!	!	!
4B\	-cre-	4d\	-cre-	.	.	.	.	.	.
!	!	!LO:LB:g=original	!	!	!	!	!	!	!
4c\	-ſcea	4e\	-ſcea	.	.	.	.	.	.
4d\	laſ-	4f\	laſ-	.	.	.	.	.	.
4.e\	-ſar	4.g\	-ſar	2r	.	4r	.	.	.
.	.	.	.	.	.	4g/	Ti	.	.
8d\	l`am-	8f\	l`am-	.	.	.	.	.	.
4c\	-di-	4e\	-di-	4r	.	2.cc\	rin-	.	.
4B\	-o	4d\	-o	4g\	Ti	.	.	.	.
=17-	=17-	=17-	=17-	=17-	=17-	=17-	=17-	=17-	=17-
1A	col-	1c	col-	4a\	rin-	.	.	1r	.
!	!	!	!	!	!	!LO:SIC:v:t=custos ee	!	!	!
.	.	.	.	4b\	-cre	4dd\	-cre-	.	.
!	!	!	!	!	!	!LO:LB:g=original	!	!	!
.	.	.	.	4cc\	-ſcea	4ee\	-ſcea	.	.
.	.	.	.	4a\	laſ-	4ff\	laſ-	.	.
2G/	-le	2d\	-le	4.b\	-ſar	4.gg\	-ſar	2r	.
.	.	.	.	8a\	l`am-	8ff\	l`am-	.	.
2c\	Al	2r	.	4g\	-di-	4ee\	-di-	2e\	Al
!	!	!	!	!LO:SIC:v:t=custos e	!	!	!	!	!
.	.	.	.	4f\	-o	4dd\	-o	.	.
!	!	!	!	!LO:LB:g=original	!	!	!	!	!
=18-	=18-	=18-	=18-	=18-	=18-	=18-	=18-	=18-	=18-
2.c\	fin	4r	.	1e	col-	1cc	col-	2g\	fin
.	.	4g\	Al	.	.	.	.	.	.
.	.	2.g\	fin	.	.	.	.	4r	.
4C/	coſ-	.	.	.	.	.	.	4e\	Al
2.G/	-tres-	.	.	1d	-le	2b/	-le	1g	fin
.	.	4G/	coſ-	.	.	.	.	.	.
.	.	2.d\	-tres-	.	.	2b/	Al	.	.
4G/	-to	.	.	.	.	.	.	.	.
=19-	=19-	=19-	=19-	=19-	=19-	=19-	=19-	=19-	=19-
4G/	di	.	.	4r	.	1dd	fin	00r	.
4D/	por-	4d\	-to	4f\	Al	.	.	.	.
4F/	-tar-	4d\	di	2f\	fin	.	.	.	.
!LO:SIC:v:t=custos A	!	!	!	!	!	!	!	!	!
4G/	-n`il	4B/	por-	.	.	.	.	.	.
!LO:LB:g=original	!	!	!	!	!	!	!	!	!
2A/	gior-	4.c/	-tar-	4r	.	2r	.	.	.
.	.	.	.	4c/	coſ-	.	.	.	.
.	.	8d\	-n`il	.	.	.	.	.	.
1.G/	-no	4e\	gior-	2.g\	-tret-	4r	.	.	.
.	.	8d\	.	.	.	4g/	coſ-	.	.
!	!	!LO:SIC:v:t=custos B	!	!	!	!	!	!	!
.	.	8c\	.	.	.	.	.	.	.
!	!	!LO:LB:g=original	!	!	!	!	!	!	!
=20-	=20-	=20-	=20-	=20-	=20-	=20-	=20-	=20-	=20-
.	.	2B/	.	.	.	2.dd\	-tret-	.	.
.	.	.	.	4g\	-to	.	.	.	.
.	.	2B/	-no	4g\	di	.	.	.	.
.	.	.	.	4d/	por-	4dd\	-to	.	.
1r	.	1r	.	4f\	-tarn-	4dd\	di	.	.
.	.	.	.	4g\	-`il	4b/	por-	.	.
.	.	.	.	2a\	gior-	4.cc\	-tarn`-	.	.
.	.	.	.	.	.	8dd\	-il	.	.
=21-	=21-	=21-	=21-	=21-	=21-	=21-	=21-	=21-	=21-
1r	.	1r	.	4g\	-no	2ee\	gior-	4r	.
.	.	.	.	4cc\	Pien	.	.	4c/	Pien
.	.	.	.	8b\	d`i-	4dd\	-no	8g\	d`i-
.	.	.	.	8a\	.	.	.	8f\	.
!	!	!	!	!	!	!LO:SIC:v:t=custos gg	!	!	!
.	.	.	.	8g\	.	4gg\	pien	8e\	.
.	.	.	.	8f\	.	.	.	8d\	.
!	!	!	!	!	!	!LO:LB:g=original	!	!	!
4r	.	4r	.	4e/	.	8gg\	d`i-	4c/	.
.	.	.	.	.	.	8ff\	.	.	.
4C/	Pien	4g\	Pien	4e/	-ra	8ee\	.	4c/	-ra
.	.	.	.	.	.	8dd\	.	.	.
!	!	!	!	!LO:SIC:v:t=custos d	!	!	!	!	!
8C/	d`i-	4.g\	d`i-	2r	.	4.ee\	.	4r	.
8D/	.	.	.	.	.	.	.	.	.
8E/	.	.	.	.	.	.	.	4G/	il
8F/	.	16f\	.	.	.	16dd\	.	.	.
.	.	16e\	.	.	.	16cc\	.	.	.
!	!	!	!	!LO:LB:g=original	!	!	!	!	!
=22-	=22-	=22-	=22-	=22-	=22-	=22-	=22-	=22-	=22-
4G/	.	4d\	.	4r	.	4b/	.	4.B/	noſ-
4G/	-ra	4B/	-ra	4d/	il	4g/	-ra	.	.
!	!	!	!	!	!	!	!	!LO:SIC:v:t=custos d	!
.	.	.	.	.	.	.	.	8c/	-tro
!	!	!	!	!	!	!	!	!LO:LB:g=original	!
4r	.	2r	.	4.f\	noſ-	4r	.	2d\	ciel
4D/	il	.	.	.	.	4dd\	il	.	.
.	.	.	.	8g\	-tro	.	.	.	.
4.F/	noſ-	4r	.	1a	ciel	4cc\	noſ-	1r	.
.	.	4A/	il	.	.	4ff\	-tro	.	.
8G/	-tro	.	.	.	.	.	.	.	.
2.A/	ciel	4.c/	noſ-	.	.	2.ee\	ciel	.	.
.	.	8d\	-tro	.	.	.	.	.	.
=23-	=23-	=23-	=23-	=23-	=23-	=23-	=23-	=23-	=23-
.	.	4e\	ciel	2a\	co-	.	.	2r	.
4d\	co-	4f\	co-	.	.	4dd\	co-	.	.
4c\	-pri-	4g\	-pri-	4cc\	-pri-	4ee\	-pri-	4r	.
4A/	-ſti	4a\	-ſti	4cc\	-ſti	4ff#X\	-ſti	4c/	co-
*lig	*	*	*	*	*	*	*	*	*
1G	d`om-	2d\	d`om-	4.b\	d`om-	4.gg\	d`om-	4g\	-pri-
.	.	.	.	.	.	.	.	2d\	-ſti
.	.	.	.	8a\	.	8ff#\	.	.	.
.	.	2B/	-bra	8b\	.	8gg\	.	.	.
.	.	.	.	8a\	.	8ff#\	.	.	.
.	.	.	.	8g\	.	8ee\	.	4.e\	d`om-
.	.	.	.	8f\	.	8dd\	.	.	.
=24-	=24-	=24-	=24-	=24-	=24-	=24-	=24-	=24-	=24-
1A	.	0r	.	4e/	.	4cc#X\	.	.	.
.	.	.	.	.	.	.	.	8A/	.
.	.	.	.	4d/	.	2dd\	.	4.a\	.
.	.	.	.	2e/	.	.	.	.	.
.	.	.	.	.	.	.	.	16g\	.
.	.	.	.	.	.	.	.	16f\	.
.	.	.	.	.	.	4cc#\	.	4e\	.
!	!	!	!	!	!	!LO:SIC:v:t=custos dd	!	!	!
*Xlig	*	*	*	*	*	*	*	*	*
!LO:SIC:v:t=custos C	!	!	!	!	!	!	!	!	!
1D	-bra	.	.	1d	-bra	1dd	-bra	1f#X	-bra
!LO:LB:g=original	!	!	!	!	!	!LO:LB:g=original	!	!	!
=25-	=25-	=25-	=25-	=25-	=25-	=25-	=25-	=25-	=25-
1r	.	1r	.	1r	.	1r	.	1r	.
!	!	!LO:SIC:v:t=custos c	!	!	!	!	!	!	!
1C	T al	1c	T al	1e	T al	1ee	T al	1g	T al-
!	!	!LO:LB:g=original	!	!	!	!	!	!	!
=26-	=26-	=26-	=26-	=26-	=26-	=26-	=26-	=26-	=26-
1C	om-	2c/	om-	8g\	om-	8ee\	om-	2e\	-om-
.	.	.	.	8f\	.	8dd\	.	.	.
.	.	.	.	8g\	.	8ee\	.	.	.
!	!	!	!	!LO:SIC:v:t=custos g	!	!	!	!	!
.	.	.	.	8a\	.	8ffny\	.	.	.
!	!	!	!	!LO:LB:g=original	!	!	!	!	!
.	.	2G/	-bra	4g\	.	4gg\	.	2e\	-bra
.	.	.	.	4e/	-bra	4g/	-bra	.	.
2C/	-bra	4r	.	2e/	giù	2g/	giù	4r	.
.	.	4g\	T al	.	.	.	.	4e\	T al
2c\	T al	8g\	om-	2r	.	4r	.	8e\	om-
.	.	8f\	.	.	.	.	.	8d\	.
.	.	8g\	.	.	.	4ccny\	T al	8e\	.
!	!	!	!	!	!	!	!	!LO:SIC:v:t=custos e	!
.	.	8a\	.	.	.	.	.	8fny\	.
!	!	!	!	!	!	!	!	!LO:LB:g=original	!
=27-	=27-	=27-	=27-	=27-	=27-	=27-	=27-	=27-	=27-
8c\	om-	4g\	.	4r	.	8ee\	om-	1e	.
8B\	.	.	.	.	.	8dd\	.	.	.
8c\	.	2e\	bra	4g\	T al	8ee\	.	.	.
8d\	.	.	.	.	.	8ff\	.	.	.
4c\	.	.	.	8g\	om-	4ee\	.	.	.
.	.	.	.	8f\	.	.	.	.	.
4C/	-bra	2c/	giù	8g\	.	4e/	bra	.	.
.	.	.	.	8a\	.	.	.	.	.
1C	giù	.	.	4g\	.	2e/	giù	2c/	-bra
.	.	4G/	fa-	4c/	-bra	.	.	.	.
.	.	2g\	-cea	1c/	giù	1cc\	fa-	2G/	giù
=28-	=28-	=28-	=28-	=28-	=28-	=28-	=28-	=28-	=28-
2F/	fa-	4r	.	.	.	.	.	2A/	fa-
.	.	4f\	fa-	.	.	.	.	.	.
1D	-cea	4.a\	-cea	2f\	fa-	1dd	-cea	2d\	-cea
.	.	8g\	.	.	.	.	.	.	.
.	.	2f\	.	2.a\	-cea	.	.	1A	di
2C#X/	di	2e\	di	.	.	2ee\	di	.	.
.	.	.	.	4a\	di	.	.	.	.
=29-	=29-	=29-	=29-	=29-	=29-	=29-	=29-	=29-	=29-
4D/	ram`-	4d\	ram-	4a\	ram-	4ff#X\	ram-	4A/	ram-
!	!	!	!	!	!	!LO:SIC:v:t=custos dd	!	!	!
4E/	-il	4c/	-`il	4g\	-`il	4gg\	-`il	4e\	-`il
!	!	!	!	!	!	!LO:LB:g=original	!	!	!
2G/	ſo-	2B/	ſo-	2g\	ſo-	1dd	ſo-	1d	ſo-
!	!	!LO:SIC:v:t=custos c	!	!	!	!	!	!	!
2D/	-le	2A/	-le	4a\	-le	.	.	.	.
!	!	!	!	!LO:SIC:v:t=custos cc	!	!	!	!	!
.	.	.	.	4f\	Il	.	.	.	.
!	!	!LO:LB:g=original	!	!LO:LB:g=original	!	!	!	!	!
2A/	il	4r	.	2.cc\	gior-	4ee\	-le	4c/	-le
.	.	4c/	Il	.	.	4cc\	Il	4e\	Il
=30-	=30-	=30-	=30-	=30-	=30-	=30-	=30-	=30-	=30-
!LO:SIC:v:t=custos C	!	!	!	!	!	!	!	!	!
1G	gior-	1d	gior-	.	.	1gg	gior-	4.g\	gior-
.	.	.	.	8b\	.	.	.	.	.
.	.	.	.	8a\	.	.	.	16f\	.
.	.	.	.	.	.	.	.	16e\	.
.	.	.	.	2b\	.	.	.	2d\	.
!LO:LB:g=original	!	!	!	!	!	!	!	!	!
2Cny/	-no	2g\	-no	2cc\	no	2ee\	-no	2c/	-no
4F/	che`l	4f\	che`l	4a\	che`l	4cc\	che`l	4c/	che`l
4F/	mio	4f\	mio	4a\	mio	4cc\	mio	4A/	mio
=31-	=31-	=31-	=31-	=31-	=31-	=31-	=31-	=31-	=31-
2F/	cor	2f\	cor	2a\	cor	2cc\	cor	1c	cor
4E/	be-	4g\	be-	4g\	be-	4cc\	be-	.	.
2F/	-aſ-	2f\	-aſ-	2a\	-aſti	2cc\	-aſti	.	.
.	.	.	.	.	.	.	.	1r	.
4G/	-ti o	4d\	-ti o	4g\	o	4b/	o	.	.
1D/	ma-	1d\	ma-	1f#X\	ma-	1a/	ma-	.	.
=32-	=32-	=32-	=32-	=32-	=32-	=32-	=32-	=32-	=32-
.	.	.	.	.	.	.	.	1r	.
2D/	-no	2d\	-no	2f#yX\	-no	2a/	-no	.	.
4G/	Qual	4B/	Qual	1r	.	1r	.	2r	.
4E/	mai	4G/	mai	.	.	.	.	.	.
2A/	col-	2c/	col-	.	.	.	.	4e\	Qual
!	!	!	!	!	!	!	!	!LO:SIC:v:t=custos g	!
.	.	.	.	.	.	.	.	4c/	mai
!	!	!	!	!	!	!	!	!LO:LB:g=original	!
=33-	=33-	=33-	=33-	=33-	=33-	=33-	=33-	=33-	=33-
2G/	-le	2B/	-le	4b\	Qual	4dd\	Qual	2g\	col-
.	.	.	.	4g\	mai	4b/	mai	.	.
2r	.	2r	.	2cc\	col-	2ee\	col-	2c/	-le
4G/	Qual	4B/	Qual	2b\	-le	4dd\	-le	1r	.
!	!	!LO:SIC:v:t=custos c	!	!	!	!	!	!	!
4E/	mai	4G/	mai	.	.	4gg\	non	.	.
!	!	!LO:LB:g=original	!	!	!	!	!	!	!
2A/	col-	2c/	col-	2r	.	4ee\	vid-	.	.
!	!	!	!	!	!	!LO:SIC:v:t=custos gg	!	!	!
.	.	.	.	.	.	4ff#X\	-`in	.	.
!	!	!	!	!	!	!LO:LB:g=original	!	!	!
=34-	=34-	=34-	=34-	=34-	=34-	=34-	=34-	=34-	=34-
2G/	-le	2B/	-le	4r	.	2.gg\	al-	4r	.
!	!	!	!	!LO:SIC:v:t=custos g	!	!	!	!	!
.	.	.	.	4b\	non	.	.	4g\	non
!	!	!	!	!LO:LB:g=original	!	!	!	!	!
2r	.	2r	.	4g#X\	vid`-	.	.	4e\	vid-
.	.	.	.	4a\	-in	4ee\	-cun	4c#X/	-`in
1r	.	1r	.	4f#X\	al-	2dd\	tem-	4d\	al-
.	.	.	.	2gny\	-cun	.	.	4G/	-cun
.	.	.	.	.	.	2a/	-po	2d\	tem-
.	.	.	.	4f#X\	tem-	.	.	.	.
=35-	=35-	=35-	=35-	=35-	=35-	=35-	=35-	=35-	=35-
4r	.	4d\	Qual	1g	-po	4b/	Qual	2G/	-po
!LO:SIC:v:t=custos E	!	!	!	!	!	!	!	!	!
4G/	non	4B/	mai	.	.	4g/	mai	.	.
!LO:LB:g=original	!	!	!	!	!	!	!	!	!
4E/	vid`	2e\	col-	.	.	2cc\	col-	2r	.
4F#X/	in	.	.	.	.	.	.	.	.
2.G/	al-	4d\	-le	4r	.	4b/	-le	4r	.
.	.	4B/	non	4g\	non	4dd\	non	4d\	non
.	.	4d\	vid-	4.g\	vid`-	4dd\	vid`-	4B/	vid`-
4E/	-cun	4e\	-in	.	.	4g/	-in	4c#X/	-in
.	.	.	.	8e/	-in	.	.	.	.
=36-	=36-	=36-	=36-	=36-	=36-	=36-	=36-	=36-	=36-
0D	tem-	2f\	al-	2a\	al-	8dd\	al-	2.d\	al-
.	.	.	.	.	.	8ee\	.	.	.
.	.	.	.	.	.	8ffny\	.	.	.
.	.	.	.	.	.	8gg\	.	.	.
.	.	2d\	-cun	4f#X\	-cun	4aa\	.	.	.
.	.	.	.	2g\	tem-	4dd\	-cun	4B/	-cun
.	.	1d	tem-	.	.	1dd	tem-	1A	tem-
.	.	.	.	8f#X\	.	.	.	.	.
.	.	.	.	8e\	.	.	.	.	.
.	.	.	.	2f#X\	.	.	.	.	.
=37-	=37-	=37-	=37-	=37-	=37-	=37-	=37-	=37-	=37-
00G	-po.	00d	-po.	00g	-po.	00b	-po.	00G	-po.
==	==	==	==	==	==	==	==	==	==
*-	*-	*-	*-	*-	*-	*-	*-	*-	*-
!!!system-decoration: [(s1,s2,s3,s4,s5)]
!!!ENC: Filip Voros
!!!END: 2022-06-09
!!!ENC: Natalia Wrzos
!!!END: 2022-07-18
